X: 0711
T: OLD PEE DEE
B: Oliver Ditson "The Boston Collection of Instrumental Music" 1910 p.71 #1
F: http://conquest.imslp.info/files/imglnks/usimg/8/8f/IMSLP175643-PMLP309456-bostoncollection00bost_bw.pdf
M: 2/4
L: 1/8
K: Dmix
A |\
AB cd | cA F>A | AB cd | cA D>A |\
AB cd | cA F>A | AB cd | cA D2 |]
A>B G2 | F>A E2 | D/E/F/G/ AB/B/ | AE D2 |\
AA G>G | FA  E2 | D/E/F/G/ AB/G/ | AE D |]

%%sep 1 1 500
%%sep 1 1 500
